X: 4065
T: SPORTING PEGGY
R: Reel.
%R: reel
B: James Kerr "Merry Melodies" v.4 p.10 #65
Z: 2016 John Chambers <jc:trillian.mit.edu>
M: C|
L: 1/8
K: D
(3(uABc) |:\
d2 (fd) (eA) (3(DFA) | d2 (fd) (3(efg) (fe) |\
d2 (fd) (eA) (DF) | GFED CEEA :|\
(3(FED) (AD) BDAD | (3(FED) (AD) CDEG |
(3(FED) (AD) BDAD | A,CEG FDDG |\
(3(FED) (dD) cDBD | (3(GFE) (3(FED) CEEA |\
defd edcB | AGFE D2 |]

%%sep 1 1 500
%%sep 1 1 500

